packages/calcite-ui-icons/icons/midpoint-16.svg

<?xml version="1.0" encoding="UTF-8"?><svg id="icons" xmlns="http://www.w3.org/2000/svg" viewBox="0 0 16 16"><defs><style>.cls-1{fill:none;}</style></defs><rect class="cls-1" width="16" height="16"/><path d="M11,9v-1h1v1h-1ZM10,9v-1h-1v1h1ZM8,7v3h-3v-1H0v-1h5v-1h3ZM7,8h-1v1h1v-1ZM15,3.99994v3.00006h1v3h-1v3h1v3h-3v-3h1v-3h-1v-3h1v-3.00006h-1V.99994h3v3h-1ZM15,14h-1v1h1v-1ZM15,8h-1v1h1v-1ZM14,2.99994h1v-1h-1v1Z"/></svg>

<svg xmlns="http://www.w3.org/2000/svg" viewBox="0 0 16 16"><path d="M0 0h16v16H0z" style="fill:none"/><path d="M11 9V8h1v1zm-1 0V8H9v1zM8 7v3H5V9H0V8h5V7zM7 8H6v1h1zm8-4v3h1v3h-1v3h1v3h-3v-3h1v-3h-1V7h1V4h-1V1h3v3zm0 10h-1v1h1zm0-6h-1v1h1zm-1-5h1V2h-1z"/></svg>
